X: 45
T: Pointe au Pique
M:2/4
R:reel
L:1/16
Z:added by Alf 
K:G
|:dBd|ABGA FGEF|DDD2 zdBd|ABGA FGEG|FFF2 zdBd|
ABGA FGEG|FFF2 zd^cd|ed^cd edBG|DDD2 zdBd|
ABGA FGEF|DDD2 zdBd|ABGA F2=F2|E6EF|
EDEF GFGA|BABd e4| d2c2 zAEF|G4 z:|
|:D2|EDEF GFGA|Be2e efe2|Be2e efe2|Be2e3E2|
D2DE FDFA|d^cde dAFA|d2de dAFA|ddd4GF|
EDEF GFGA|Be2e efee|Be2e efee|Be2e e2f2|
g3a gdBc|d^cde dBGA|BdBG A^cAF|G4 G2:|
